fs/document_percent_20_filled.svg

<svg viewBox="0 0 20 20" fill="none" xmlns="http://www.w3.org/2000/svg" height="1em" width="1em">
  <path d="M10 6.5V2H5.5C4.67157 2 4 2.67157 4 3.5V9.17071C5.12964 9.56998 5.94875 10.6266 5.99768 11.881L7.43934 10.4393C8.02513 9.85355 8.97487 9.85355 9.56066 10.4393C10.1464 11.0251 10.1464 11.9749 9.56066 12.5607L8.119 14.0023C9.72069 14.0648 11 15.383 11 17C11 17.3506 10.9398 17.6872 10.8293 18H14.5C15.3284 18 16 17.3284 16 16.5V8H11.5C10.6716 8 10 7.32843 10 6.5ZM5 12C5 12.7403 4.5978 13.3866 4 13.7324C3.70583 13.9026 3.36429 14 3 14C1.89543 14 1 13.1046 1 12C1 10.8954 1.89543 10 3 10C3.36429 10 3.70583 10.0974 4 10.2676C4.5978 10.6134 5 11.2597 5 12ZM4 12C4 11.4477 3.55228 11 3 11C2.44772 11 2 11.4477 2 12C2 12.5523 2.44772 13 3 13C3.55228 13 4 12.5523 4 12ZM2.85355 17.8536C2.65829 18.0488 2.34171 18.0488 2.14645 17.8536C1.95118 17.6583 1.95118 17.3417 2.14645 17.1464L8.14645 11.1464C8.3173 10.9756 8.58104 10.9542 8.77512 11.0824C8.80284 11.1007 8.82915 11.122 8.85355 11.1464C9.04882 11.3417 9.04882 11.6583 8.85355 11.8536L2.85355 17.8536ZM6 17C6 17.3643 6.09739 17.7058 6.26756 18C6.61337 18.5978 7.25972 19 8 19C8.74028 19 9.38663 18.5978 9.73244 18C9.90261 17.7058 10 17.3643 10 17C10 15.8954 9.10457 15 8 15C6.89543 15 6 15.8954 6 17ZM8 18C7.44772 18 7 17.5523 7 17C7 16.4477 7.44772 16 8 16C8.55228 16 9 16.4477 9 17C9 17.5523 8.55228 18 8 18ZM11 6.5V2.25L15.75 7H11.5C11.2239 7 11 6.77614 11 6.5Z" fill="#212121"/>
</svg>

<svg viewBox="0 0 20 20" fill="none" xmlns="http://www.w3.org/2000/svg" height="1em" width="1em">
  <path d="M10 6.5V2H5.5A1.5 1.5 0 0 0 4 3.5v5.67a3.002 3.002 0 0 1 1.998 2.711l1.441-1.442a1.5 1.5 0 0 1 2.122 2.122l-1.442 1.441A3 3 0 0 1 10.829 18H14.5a1.5 1.5 0 0 0 1.5-1.5V8h-4.5A1.5 1.5 0 0 1 10 6.5ZM5 12a2 2 0 1 1-4 0 2 2 0 1 1 4 0Zm-1 0a1 1 0 1 0-2 0 1 1 0 0 0 2 0Zm-1.146 5.854a.5.5 0 0 1-.708-.708l6-6a.5.5 0 0 1 .708.708l-6 6ZM6 17a2 2 0 1 0 3.998.002A2 2 0 0 0 6 17Zm2 1a1 1 0 1 1 0-2 1 1 0 0 1 0 2Zm3-11.5V2.25L15.75 7H11.5a.5.5 0 0 1-.5-.5Z" fill="#212121"/>
</svg>
